icon-themes/sifr_svg/cmd/sc_printlayout.svg

<svg viewBox="0 0 16 16" xmlns="http://www.w3.org/2000/svg"><path d="m2 1v14h4v-2h-2v-10h5v3h3v1h2v-2l-4-4zm7 7v1h5v-1zm-1 2c-.554 0-1 .446-1 1v2c0 .554.446 1 1 1v-2h7v2c.554 0 1-.446 1-1v-2c0-.554-.446-1-1-1zm1 3v3h5v-3z" fill="#555753"/></svg>

<svg xmlns="http://www.w3.org/2000/svg" viewBox="0 0 16 16">
  <path
     style="fill:#555753"
     d="M 2 1 L 2 15 L 6 15 L 6 13 L 4 13 L 4 3 L 9 3 L 9 6 L 12 6 L 12 7 L 14 7 L 14 5 L 10 1 L 2 1 z M 9 8 L 9 9 L 14 9 L 14 8 L 9 8 z M 8 10 C 7.446 10 7 10.446 7 11 L 7 13 C 7 13.554 7.446 14 8 14 L 8 12 L 15 12 L 15 14 C 15.554 14 16 13.554 16 13 L 16 11 C 16 10.446 15.554 10 15 10 L 8 10 z M 9 13 L 9 16 L 14 16 L 14 13 L 9 13 z "
     />
</svg>
